X:1
T:Here's to the Women
M:3/4
L:1/4
K:A
 E E E| E/2 D3/2 C| D E F| E2 E| E E E| E D C| B, B, B,| E D3/2 B,/2|\
 E E E| E/2 D3/2 C| D E F| E2 E| E2 E/2E/2| E D C| B, C B,| A,3-| A,3|\
